X:1
T:Title
%%score ( 1 2 ) { 3 | 4 }
L:1/8
Q:1/4=86
M:4/8
K:E
V:1 treble nm="Grand Piano, Soprano"
V:2 treble 
V:3 bass nm="Choir Pad, Bass"
V:4 bass 
V:1
 [EB][EB][EB][DF] | [EG]E E2 | [EB][EB][EB][DF] | [EG]E E2 | [DF][DF][EG]/[FA]/[GB]/[EG]/ | %5
w: By~Hans~Georg~Nägeli~(1773\-1836) * * *|||||
 [DF]3 z | [FA][FA][DF][DF] | [EB]2 [EG]2 | [FA][FA][DF][DF] | [EB]2 [EG]2 | z2 .G z | E4- | %12
w: |||||||
 E2 z2 |] %13
w: |
V:2
 x4 | x4 | x4 | x4 | x4 | x4 | x4 | x4 | x4 | x4 | E[EF]F/-[FA]/[DF] | x4 | x4 |] %13
V:3
 G,G,F,F, | E,G, G,2 | G,G,F,F, | E,G, G,2 | B,B,B,B, | B,3 z | B,B,B,B, | B,2 B,2 | B,B,B,B, | %9
 B,2 B,2 | CCB,A, | G,4- | G,2 z2 |] %13
V:4
 E,E,B,,B,, | z2 E,2 | E,E,B,,B,, | z2 E,2 | B,,B,,E,E, | B,,3 z | B,,B,, z A, | G,2 G,2 | %8
 B,,B,, z A, | G,2 E,2 | C,A,,B,,B,, | E,4- | E,2 z2 |] %13

